X: 33697
T: Randy Wife Of Greenlaw, The
R: reel
M: 4/4
K: Dmajor
c|d2AG F2Dc|d2fd eBBc|d2AG F2DF|GBAG FDD:|
A|~d3f abaf|gefd eBBc|dAdf abaf|geaf d3A|
dcdf ~a3f|gefd eBBc|dfce BdAF|GBAF D3||

